X:123
T:Gypsey's Hornpipe
R:hp 32
S:Thomas Hardy collection
Z:P J Headford
M:4/4
L:1/8
Q:1/4=140
K:D
|:FE|DFAd dcde|fdcd BAGF|GABc dAGF|BAGF .F2E2|
DFAd dcde|fdcd A2fg|afaf gece|.d2.d2 d2:|
|:AG|FADA FADA|FAdc BAGF|GBEB GBEB|GBed cBAG|
FADA FADA|FA.d2 d2fg|afaf gece|.d2.d2 d2:|]

